images/main-footer/logo-html-academy/logo-html-academy_hover.svg

<svg width="115" height="34" viewBox="0 0 115 34" fill="none" xmlns="http://www.w3.org/2000/svg">
<path d="M0 13.6233V16.2233H2.5V13.6233H0Z" fill="#756157"/>
<path d="M11.6 5.22327C10 5.22327 8.8 5.92327 8 6.92327H7.9V0.723267H5.9V16.2233H7.9V10.9233C7.9 8.82327 9.2 7.32327 11.2 7.32327C13 7.32327 14.1 8.72327 14.1 10.5233V16.2233H16.1V10.1233C16.2 7.12327 14.3 5.22327 11.6 5.22327Z" fill="#756157"/>
<path d="M26.6 5.52327H21.8V1.82327H19.8V5.62327H17.9V7.62327H19.8V13.6233C19.8 15.3233 20.8 16.3233 22.5 16.3233H26.6V14.3233H22.9C22.2 14.3233 21.8 13.9233 21.8 13.2233V7.52327H26.6V5.52327Z" fill="#756157"/>
<path d="M41.1 5.32327C39.5 5.32327 38.2 6.12327 37.6 7.42327H37.5C36.9 6.22327 35.7 5.32327 34.1 5.32327C32.7 5.32327 31.6 6.12327 31 7.12327H30.9V5.52327H29V16.1233H31V10.7233C31 8.72327 32 7.22327 33.6 7.22327C35.1 7.22327 36 8.22327 36 9.82327V16.1233H38V10.5233C38 8.12327 39.4 7.22327 40.6 7.22327C42.1 7.22327 43 8.22327 43 9.82327V16.1233H45V9.62327C45.1 7.12327 43.6 5.32327 41.1 5.32327Z" fill="#756157"/>
<path d="M47.8 13.4233C47.8 15.1233 48.8 16.1233 50.6 16.1233H52.6V14.1233H50.9C50.2 14.1233 49.8 13.7233 49.8 13.0233V0.723267H47.8V13.4233Z" fill="#756157"/>
<path d="M28.9 20.4233C28 19.3233 26.7 18.6233 25 18.6233C21.9 18.6233 19.6 20.9233 19.6 24.2233C19.6 27.5233 21.9 29.8233 25 29.8233C26.8 29.8233 28 29.0233 28.8 27.9233H28.9V29.5233H30.9V18.9233H28.9V20.4233ZM25.3 27.8233C23.1 27.8233 21.7 26.2233 21.7 24.2233C21.7 22.2233 23.1 20.6233 25.3 20.6233C27.5 20.6233 28.9 22.2233 28.9 24.2233C28.9 26.1233 27.5 27.8233 25.3 27.8233Z" fill="#756157"/>
<path d="M44.2 22.7233C43.7 20.3233 41.6 18.6233 38.8 18.6233C35.4 18.6233 33.2 21.1233 33.2 24.2233C33.2 27.3233 35.4 29.8233 38.8 29.8233C41.6 29.8233 43.7 28.0233 44.2 25.6233H42.1C41.7 26.9233 40.4 27.9233 38.8 27.9233C36.6 27.9233 35.2 26.3233 35.2 24.3233C35.2 22.3233 36.6 20.7233 38.8 20.7233C40.4 20.7233 41.6 21.7233 42.1 22.9233H44.2V22.7233Z" fill="#756157"/>
<path d="M55.1 20.4233C54.2 19.3233 52.9 18.6233 51.2 18.6233C48.1 18.6233 45.8 20.9233 45.8 24.2233C45.8 27.5233 48.1 29.8233 51.2 29.8233C53 29.8233 54.2 29.0233 55 27.9233H55.1V29.5233H57.1V18.9233H55.1V20.4233ZM51.5 27.8233C49.3 27.8233 47.9 26.2233 47.9 24.2233C47.9 22.2233 49.3 20.6233 51.5 20.6233C53.7 20.6233 55.1 22.2233 55.1 24.2233C55.1 26.1233 53.6 27.8233 51.5 27.8233Z" fill="#756157"/>
<path d="M68.7 20.5233C67.8 19.4233 66.5 18.6233 64.8 18.6233C61.7 18.6233 59.4 20.9233 59.4 24.2233C59.4 27.5233 61.6 29.8233 64.8 29.8233C66.5 29.8233 67.8 29.0233 68.6 28.0233H68.7V29.5233H70.7V14.1233H68.7V20.5233ZM65.1 27.8233C62.9 27.8233 61.5 26.2233 61.5 24.2233C61.5 22.2233 62.9 20.6233 65.1 20.6233C67.3 20.6233 68.7 22.2233 68.7 24.2233C68.6 26.2233 67.2 27.8233 65.1 27.8233Z" fill="#756157"/>
<path d="M78.3 18.6233C75 18.6233 72.8 21.1233 72.8 24.2233C72.8 27.2233 74.9 29.8233 78.3 29.8233C80.8 29.8233 82.8 28.5233 83.5 26.2233H81.4C80.9 27.2233 79.8 27.8233 78.4 27.8233C76.5 27.8233 75.1 26.5233 75 24.9233H83.8C84 21.3233 81.8 18.6233 78.3 18.6233ZM78.3 20.5233C80 20.5233 81.3 21.5233 81.6 23.1233H75.1C75.4 21.6233 76.6 20.5233 78.3 20.5233Z" fill="#756157"/>
<path d="M98.2 18.6233C96.6 18.6233 95.3 19.4233 94.6 20.6233H94.5C93.9 19.4233 92.7 18.6233 91.1 18.6233C89.7 18.6233 88.6 19.3233 88 20.4233V18.9233H86.1V29.5233H88.1V24.1233C88.1 22.1233 89.1 20.7233 90.7 20.6233C92.2 20.6233 93.1 21.6233 93.1 23.2233V29.5233H95.1V23.9233C95.1 21.5233 96.5 20.6233 97.7 20.6233C99.2 20.6233 100.1 21.6233 100.1 23.2233V29.5233H102.1V23.0233C102.2 20.4233 100.7 18.6233 98.2 18.6233Z" fill="#756157"/>
<path d="M109.4 27.7233L105.8 18.8233H103.6L108.4 30.4233C108.1 31.3233 107.7 31.6233 106.7 31.6233H104.2V33.6233H106.7C108.5 33.6233 109.5 32.8233 110.2 31.0233L114.9 18.8233H112.8L109.4 27.7233Z" fill="#756157"/>
</svg>

<svg xmlns="http://www.w3.org/2000/svg" width="115" height="34" fill="none"><path fill="#756157" d="M0 13.623v2.6h2.5v-2.6H0ZM11.6 5.223c-1.6 0-2.8.7-3.6 1.7h-.1v-6.2h-2v15.5h2v-5.3c0-2.1 1.3-3.6 3.3-3.6 1.8 0 2.9 1.4 2.9 3.2v5.7h2v-6.1c.1-3-1.8-4.9-4.5-4.9ZM26.6 5.523h-4.8v-3.7h-2v3.8h-1.9v2h1.9v6c0 1.7 1 2.7 2.7 2.7h4.1v-2h-3.7c-.7 0-1.1-.4-1.1-1.1v-5.7h4.8v-2ZM41.1 5.323c-1.6 0-2.9.8-3.5 2.1h-.1c-.6-1.2-1.8-2.1-3.4-2.1-1.4 0-2.5.8-3.1 1.8h-.1v-1.6H29v10.6h2v-5.4c0-2 1-3.5 2.6-3.5 1.5 0 2.4 1 2.4 2.6v6.3h2v-5.6c0-2.4 1.4-3.3 2.6-3.3 1.5 0 2.4 1 2.4 2.6v6.3h2v-6.5c.1-2.5-1.4-4.3-3.9-4.3ZM47.8 13.423c0 1.7 1 2.7 2.8 2.7h2v-2h-1.7c-.7 0-1.1-.4-1.1-1.1V.723h-2v12.7ZM28.9 20.423c-.9-1.1-2.2-1.8-3.9-1.8-3.1 0-5.4 2.3-5.4 5.6s2.3 5.6 5.4 5.6c1.8 0 3-.8 3.8-1.9h.1v1.6h2v-10.6h-2v1.5Zm-3.6 7.4c-2.2 0-3.6-1.6-3.6-3.6s1.4-3.6 3.6-3.6 3.6 1.6 3.6 3.6c0 1.9-1.4 3.6-3.6 3.6ZM44.2 22.723c-.5-2.4-2.6-4.1-5.4-4.1-3.4 0-5.6 2.5-5.6 5.6 0 3.1 2.2 5.6 5.6 5.6 2.8 0 4.9-1.8 5.4-4.2h-2.1c-.4 1.3-1.7 2.3-3.3 2.3-2.2 0-3.6-1.6-3.6-3.6s1.4-3.6 3.6-3.6c1.6 0 2.8 1 3.3 2.2h2.1v-.2ZM55.1 20.423c-.9-1.1-2.2-1.8-3.9-1.8-3.1 0-5.4 2.3-5.4 5.6s2.3 5.6 5.4 5.6c1.8 0 3-.8 3.8-1.9h.1v1.6h2v-10.6h-2v1.5Zm-3.6 7.4c-2.2 0-3.6-1.6-3.6-3.6s1.4-3.6 3.6-3.6 3.6 1.6 3.6 3.6c0 1.9-1.5 3.6-3.6 3.6ZM68.7 20.523c-.9-1.1-2.2-1.9-3.9-1.9-3.1 0-5.4 2.3-5.4 5.6s2.2 5.6 5.4 5.6c1.7 0 3-.8 3.8-1.8h.1v1.5h2v-15.4h-2v6.4Zm-3.6 7.3c-2.2 0-3.6-1.6-3.6-3.6s1.4-3.6 3.6-3.6 3.6 1.6 3.6 3.6c-.1 2-1.5 3.6-3.6 3.6ZM78.3 18.623c-3.3 0-5.5 2.5-5.5 5.6 0 3 2.1 5.6 5.5 5.6 2.5 0 4.5-1.3 5.2-3.6h-2.1c-.5 1-1.6 1.6-3 1.6-1.9 0-3.3-1.3-3.4-2.9h8.8c.2-3.6-2-6.3-5.5-6.3Zm0 1.9c1.7 0 3 1 3.3 2.6h-6.5c.3-1.5 1.5-2.6 3.2-2.6ZM98.2 18.623c-1.6 0-2.9.8-3.6 2h-.1c-.6-1.2-1.8-2-3.4-2-1.4 0-2.5.7-3.1 1.8v-1.5h-1.9v10.6h2v-5.4c0-2 1-3.4 2.6-3.5 1.5 0 2.4 1 2.4 2.6v6.3h2v-5.6c0-2.4 1.4-3.3 2.6-3.3 1.5 0 2.4 1 2.4 2.6v6.3h2v-6.5c.1-2.6-1.4-4.4-3.9-4.4ZM109.4 27.723l-3.6-8.9h-2.2l4.8 11.6c-.3.9-.7 1.2-1.7 1.2h-2.5v2h2.5c1.8 0 2.8-.8 3.5-2.6l4.7-12.2h-2.1l-3.4 8.9Z"/></svg>
